X: 14
T: Bunker Hill
Z: Makenzie
S: https://thesession.org/tunes/207#setting53322
R: reel
M: 4/4
L: 1/8
K: Dmix
|:cA|GEcE D3G | (3EFG ABc2 Bc | ABAG EF G2 | ABcA d2 cA |
GEcE D3G | (3EFG ABc2 Bc | ABAG EF G2 | AB (3cBA d2:|
|: cA | Gc~c2ec~c2 | GccB cBAG | Ad~d2 f d~d2 | AddB cBAG |
(3EFG AB cAdB | cAdB c2Bc | dBcA BG~G2 | ABcA d2 :|
|:ag |fd~d2 fdad | fadfa2 gf | ge~e2 gebe | gbe gb2ag |
fd~d2dcAB | cAdB c2Bc | dBcA BG~G2 | ABcA d2 :|

%-------------------- TUNE SEPARATOR --------------------%

